icons/4_Outdated/ExpressVPN v1.svg

<svg width="1024" height="1024" viewBox="0 0 1024 1024" fill="none" xmlns="http://www.w3.org/2000/svg">
<g clip-path="url(#clip0_3_539)">
<path d="M512 1024C794.77 1024 1024 794.77 1024 512C1024 229.23 794.77 0 512 0C229.23 0 0 229.23 0 512C0 794.77 229.23 1024 512 1024Z" fill="#FF837D"/>
<path d="M512.001 256C371.101 256 256.801 370.6 256.801 512C256.801 653.4 371.101 768 512.001 768C652.901 768 767.201 653.4 767.201 512C767.201 370.6 652.901 256 512.001 256ZM579.901 645.9H519.901L499.501 588.5H343.701V552.3H486.701L478.501 529.3H373.001V493H465.701L455.801 465.1H345.601V428.9H503.701L551.601 571H552.401L615.001 375.4H676.201L579.901 645.9Z" fill="white"/>
</g>
<defs>
<clipPath id="clip0_3_539">
<rect width="1024" height="1024" fill="white"/>
</clipPath>
</defs>
</svg>

<svg xmlns="http://www.w3.org/2000/svg" width="1024" height="1024" fill="none">
   <g clip-path="url(#a)">
      <path fill="#FF837D" d="M512 1024c282.77 0 512-229.23 512-512S794.77 0 512 0 0 229.23 0 512s229.23 512 512 512Z"/>
      <path fill="#fff" d="M512.001 256c-140.9 0-255.2 114.6-255.2 256s114.3 256 255.2 256c140.9 0 255.2-114.6 255.2-256s-114.3-256-255.2-256Zm67.9 389.9h-60l-20.4-57.4h-155.8v-36.2h143l-8.2-23h-105.5V493h92.7l-9.9-27.9h-110.2v-36.2h158.1l47.9 142.1h.8l62.6-195.6h61.2l-96.3 270.5Z"/>
   </g>
   <defs>
      <clipPath id="a">
         <path fill="#fff" d="M0 0h1024v1024H0z"/>
      </clipPath>
   </defs>
</svg>
